!!!SOCIAL_FUNCTION:	songs of dances presented at makah day celebrations
!!!PDT:	1939
!!!OTL: No_56_Song_of_the_Horsemen.krn
!!!LANG: Non-Tone
!!!LING_GROUP: Wakashan
!!!REG: Pacific Northwest
**kern
*staff1
=1-
*clefF4
*k[]
*M3/4
2.d\
=2||
*M2/4
8d\L
8d\J
8d\
16r
16e\
=3!|:
*M3/4
2.e\
=4||
*M2/4
8e\L
8d\J
8d\L
16.A\L
32d\JJk
=5||
*M3/4
2.d\
=6||
*M2/4
8d\L
8d\J
8d\
16r
16e\
=7||
*M3/4
2.e\
=8||
*M2/4
8e\L
8d\J
8d\L
16.A\L
32d\JJk
=9||
*M3/4
2.d\
=10||
*M2/4
8d\L
8d\J
8d\
8r
=11
8d\L
8B\J
8A\L
16.A\L
32d\JJk
=12||
*M3/4
[2d\
8d\]
8r
=13||
*M2/4
8A\L
8A\J
4E\
=14
8E\L
8E\J
8D\L
8D\J
=15||
*M3/4
8E\L
8E\J
8E\L
8E\J
8E\L
8E\J
=16
8D\L
8D\J
8D\L
8D\J
8D\
16r
16e\
=17:|!
8D\L
8D\J
8D\L
8D\J
8D\
8r
==
*-
